X:4100
T:Ostalerrak
M:6/8
O:Basque
Z:Richard Robinson 
%%TUNEURL: http://www.leeds.ac.uk/music/Info/RRTuneBk/gettune/00000b98.html
%%ID:00000b98
K:C
c2c f2f| def g2g| def gag| f2e d3| \
c2c f2f| def g2g| def gag| f2e d3||
fed cBc| d2e f2d| fed cBc| d2e c3|\
fed cBc| d2e f2d| fed cBc| d2e c3||
efg d3 | efg d3 | efg gag| gfe d3|\
fed cBc| d2e f2d| fed cBc| d2e c3|
efg d3 | efg d3 | efg gag| gfe d3| \
fed cBc| d2e f2d| fed cBc|1 d2e c3 :|2 d2g c3|]
